X:33
T:Summer Wine
%: Key A
L:1/8
M:4/4
Q:1/4=139
K:Am
%Ac eA ce Ac|Bc eB ce Bc|Ac eA ce Ac|Bc eB ce Bc|
z2A2A2B2|c3ed2c2|d2dd- d d2d-|d6z2|
z2A2A2B2|c3ed2c2|g2gg- gg2g-|g6z2||
f2f2g2|ag2f-f2f2|e2ee- ee2e-|e4z4|
z2dd- de2f-|f2ed-d2z2|z4AG2A-A4z4|
d6cB-|B4BG3|A6z2||


